X:1
T:Doctorum principem / Melodia suavissima / Vir mitis
T:Johannes Ciconia (c. 1370 - 1412)
T:Doctorum principem / Melodia suavissima / Vir mitis
C:Johannes Ciconia (c. 1370 - 1412)
%%score [ 1 2 3 4 ]
L:1/8
Q:3/8=97
M:6/8
K:C
V:1 treble nm="Soprano I" snm="A."
V:2 treble nm="Soprano II" snm="A."
V:3 treble-8 transpose=-12 nm="Tenor I (optional)" snm="T."
V:4 treble-8 transpose=-12 nm="Tenor II (vir mitis)" snm="T."
V:1
 c6- | c6 | c2 B A2 B | c2 B A2 B | c3 A3 | B6- | B6 | ccA BBG | A2 G G2 ^F | G3 z3 | z6 | G3 A3 | %12
w: [Ah]|_||||||Doc- to- rum prin- ci- pem|su- per e- the-|ra||Ah _|
 B6- | B6 | B2 c A2 c | B2 c A2 c | B2 A c3 | d6- | d6 | c6- | c6 | d2 c _B2 A | G2 F E2 F | %23
w: _||re- vo- can vir-|tu- tum di- gna|me- ri- ta.|Er-||go|_|vi- ve vo- ci|de- tur o- pe-|
 G3 z3 | z6 | G3 A3 | B2 c A B2 | c6 | _B2 A B2 c | A3 G3 | A2 _B c2 B | A6- | A6 | z z A G2 A | %34
w: ra,||pro- mat|men- * * *|tis|fer- * * *|vor, in-|tus _ con- vi-|ta.|_|[Ah] _ _|
 ^F3 z z G | E2 ^F G3 | z z A =F2 A | G3 z z G | A3 z3 | z6 | dA_B cGA | _BFG AE^F | G2 z =B2 z | %43
w: _ [Ah]|_ _ _|[Ah] _ _|_ [Ah]|_||[Ah] _ _ _ _ _|_ _ _ _ _ _|* [Ah]|
 A2 z G2 z ||[M:3/4] c6- | c6 | F2 z A GA | F2 z A GA | F2 z A GA | B6- | B6 | c2 dc BA | %52
w: [Ah] [Ah]|[O]|_|* [O] _ _|_ [O] _ _|_ [O] _ _|_||O Fran- ci- sce Za-|
 G2 AF GE | F2 z2 z2 | z6 | cB A G2 A | B6- | B6 | z B A2 c2 | z B c2 A2 | z B A2 c2 | G6- | G6 | %63
w: ba- rel- le, glo- ri-|a||do- * * * *|ctor,|_|ho- nos _|et lu- men|Pa- ta- vo-|rum,|_|
 A6- | A6 | d2 dc d_B | A2 AG AF | G2 z2 z2 | z6 | G B2 A2 B | G B2 A Bc | d2 cB A2 | G2 z2 z2 | %73
w: ||vi- ve fe- lix de|tan- ta vic- to- ri-|a;||[Ah] _ _ _|_ _ _ _ _|pro te vi- re-|scit|
 d2 cB AB | G2 z2 z2 | d2 cB A2 | z6 | A z B z G z | A z B z G z | B2 G2 z2 | B2 A2 z2 | B2 c2 z2 | %82
w: fa- * * * *|ma|Pa- ta- vo- rum||[Ah] [Ah] [Ah]|[Ah] [Ah] [Ah]|[Ah] _|[Ah] _|[Ah] _|
 d2 A_B GA | c_B A G2 F | G2 z2 F2 | G D2 E2 F | G A2 G2 F | E F2 E2 D ||[M:4/4] F8 | %89
w: [Ah] _ _ _ _|_ _ _ _ _|* [Ah]|_ _ _ _|||O|
[M:6/4] FAGA FAGA FAGA |[M:4/4] B8 | cBAB G2 F2 | G2 A2 _BAGA |[M:6/4] G2 E2 D8 | DEFGDE FGDE F2 | %95
w: _ _ _ _ _ _ _ _ _ _ _ _||Fran- * ci- * sce Za-|ba- rel- le, _ pa- bu|la _ _|pa- ra- sti- pa- sto- ri- bus ar- men- to- rum,|
[M:4/4] G8 | F8 | z8 | dd_BB ccAA | G2 z2 GA=Bc | d2 A2 c2 BA | cB A2 B2 c2 | d2 cB !breath!A4 | %103
w: qui-|bus||pa- scant o- ves: gra- ta se- cu-|la [Ah] _ _ _|_ te pro mu- ne-|re re- vo- cant la-|bo- * * rum.|
 GFED GFED | C2 E2 D2 F2 | EFGA B2 c2 | z G AA z B AA |[M:6/4] z G A2 z G BB z c A2 |[M:4/4] B8- | %109
w: [Ah] _ _ _ _ _ _ _|_ _ _ _||[Ah] _ _ [Ah] _ _|[Ah] _ [A- * ha] [ha] _|A-|
 B8 | c8- | c8 |] %112
w: |men.|_|
V:2
 F6 | F3 C3 | F2 G A2 G | F2 G A2 G | F3 E3 | D6- | D6 | z6 | z6 | ccA BBG | A2 G G2 ^F | G3 E3 | %12
w: [Ah]|_ _||||||||Me- lo- di- a su- a-|vis- si- ma can-|te- *|
 D6- | D6 | D2 E F2 G | D2 E F2 G | D2 E F3 | G6 | F3 D3 | E6- | E6 | z6 | z6 | d2 c _B2 A | %24
w: mus,|_|tan- gant vo- ces|mel- li- flu- e|si- de- ra,|con-|cor- di-|e|_|||car- men li- ram|
 G2 F E2 F | GAG F2 E | D6 | F6 | G6 | A3 _B3 | A2 G F2 G | (A6 | F6-) | F3 z z B | A2 B G3 | %35
w: so- ne- mus, re-|so- * * * *|net|per|cho-|ros pul-|sa _ ci- tha-|ra|_|* [Ah]|_ _ _|
 z z c B2 c | A3 z z d | c2 d B2 c | dA_B cGA | _BFG AE^F | G3 z3 | z6 | G3 z DD | z EE z DD || %44
w: [Ah] _ _|_ [Ah]|_ _ _ _|||||[Ah] [A- ha]|[A- ha] [A- ha]|
[M:3/4] F6- | F6 | z F CD E2 | z F CD E2 | z F CD E2 | D6- | D6 | z6 | z6 | c2 dc BA | G2 AF GE | %55
w: [O]|_|[O] _ _ _|[O] _ _ _|[O] _ _ _|_||||O Fran- ci- sce Za-|ba- rel- * le, _|
 F G2 F2 E | D6- | D6 | E2 z F z D | E2 z F z D | E2 z F z E | D6 | G F2 E2 D | E6- | E6 | z6 | %66
w: pro- te- * *|ctor,|_|i- * *|mo ve- *|rus pa- *|ter|re- i- pu- bli-|ce,|_||
 z6 | d2 dc d_B | A2 AG AF | G2 F2 E2 | D2 z2 z2 | z6 | G2 FE D2 | z6 | G2 FE D2 | z6 | d2 cB A2 | %77
w: |il- los ad se vo-|cat re- rum con- *|di- * *|tor,||qui for- tu- ne||mi- se- ren- tur||lu- bri- * ce.|
 z F z G z D | z F z G z D | E2 z2 E2 | D2 z2 F2 | G2 z2 G2 | A2 G F2 E | F2- FD C2 | D2 z2 C2 | %85
w: [Ah] [Ah] [Ah]|[Ah] [Ah] [Ah]|_ [Ah]|_ [Ah]|_ [Ah]|_ _ _ _||* [Ah]|
 G2 A2 z F | G2 FE D2 | EF GA BA ||[M:4/4] c8 |[M:6/4] FCDE FCDE FCDE |[M:4/4] D8 | CDEF G2 A2 | %92
w: _ _ [Ah]|_ _ _ _||O|_ _ _ _ _ _ _ _ _ _ _ _||Fran- * ci- * sce Za-|
 _B2 A2 GFEF |[M:6/4] G2 A2 G8 | BcAcBc AcBA c2 |[M:4/4] d8 | c8 | dd_BB ccAA | G2 z2 z4 | %99
w: ba- rel- le, _ ca- u-|sas _ _|spe- cu- la- ris om- ni- um cre- a- to- rum;|tu-|as|po- ste- ri re- so- ne- bunt mu-|sas|
 dcBA G2 z2 | D2 F2 E2 G2 | FG A2 G F2 E | D4 !breath!F4 | EFGA EFGA | E G2 D2 F2 E- | %105
w: [Ah] _ _ _ _|per om- ni a|se- cu- la se- cu- lo-|rum. _|[Ah] _ _ _ _ _ _ _|_ _ _ _ _|
 E G2 A FF z G | DD z C D2 z F |[M:6/4] GG z F E2 z G CC z D |[M:4/4] E8- | E8 | F8- | F8 |] %112
w: * * * * * [Ah]|_ _ [Ah] _ [Ah]|_ _ [Ah] _ [Ah] _ _ A-|||men.|_|
V:3
 c6- | c6 | c3 F3 | c3 F3 | c3 F3 | B6- | B6 | z6 | z6 | z6 | z6 | c6 | B6- | B6 | B3 c3 | B3 c3 | %16
w: [Ah]|_||||||||||[Ah]|_||||
 B3 c3 | G6- | G6 | c6- | c6 | d6- | d6 | G6 | A6 | d6- | d6 | z6 | z6 | z6 | z6 | f6 | d6 | %33
w: |||||vi|_|||||||||[Ah]|_|
 G3 d3 | B3 d3 | e6 | f6 | c6 | G3 A3 | G3 c3 | _B3 c3 | d3 c3 | d6 | c6 ||[M:3/4] c6- | c6 | %46
w: |||||||||||[O]|_|
 c2 F4 | c2 F4 | c2 F4 | B6- | B6 | z6 | z6 | z6 | z6 | c6 | B6- | B6 | B2 c4 | B2 c4 | B2 c4 | %61
w: |||||||||[Ah]|_|||||
 G6- | G6 | c6- | c6 | d6- | d6 | G6 | A6 | d6- | d6 | z6 | z6 | z6 | z6 | f6 | d6 | G2 d4 | %78
w: ||||vi|_|||||||||[Ah]|_||
 B2 d4 | g6 | f6 | c6 | G2 A4 | G2 c4 | _B2 c4 | d2 c4 | d6 | c6 ||[M:4/4] c8 | %89
w: ||||||||||O|
[M:6/4] c2 F2 c2 F2 c2 F2 |[M:4/4] =B8 | z8 | z8 |[M:6/4] c4 =B8 | B2 c2 B2 c2 B2 c2 |[M:4/4] G8 | %96
w: _ _ _ _ _ _||||[Ah] _|_ _ _ _ _ _||
 c8 | d8 | G4 A4 | d8 | z8 | z8 | f4 !breath!d4 | G2 d2 B2 d2 | e4 f4 | c4 G2 A2 | G2 c2 =B2 c2 | %107
w: ||||||[Ah] _|_ _ _ _||||
[M:6/4] d2 c2 d4 c4 |[M:4/4] B8- | B8 | c8- | c8 |] %112
w: |A-||men.|_|
V:4
 F6- | F6 | F3 c3 | F3 c3 | F3 c3 | G6- | G6 | z6 | z6 | z6 | z6 | c6 | G6- | G6 | G3 F3 | G3 F3 | %16
w: [Ah]|_||||||||||[Ah]|_||||
 G3 F3 | _B6- | B6 | A6- | A6 | z6 | z6 | z6 | z6 | G6- | G6 | z6 | z6 | z6 | z6 | d6- | d6 | %33
w: |||||||||[Ee]|_|||||[Ah]|_|
 d3 G3 | d3 G3 | g6 | f6 | e6 | d3 c3 | _B3 A3 | G3 A3 | _B3 A3 | G6 | c6 ||[M:3/4] F6- | F6 | %46
w: |||||||||||[O]|_|
 F2 c4 | F2 c4 | F2 c4 | G6- | G6 | z6 | z6 | z6 | z6 | c6 | G6- | G6 | G2 F4 | G2 F4 | G2 F4 | %61
w: |||||||||[Ah]|_|||||
 _B6- | B6 | A6- | A6 | z6 | z6 | z6 | z6 | G6- | G6 | z6 | z6 | z6 | z6 | d6- | d6 | d2 G4 | %78
w: ||||||||[Ee]|_|||||[Ah]|_||
 d2 G4 | g6 | f6 | e6 | d2 c4 | _B2 A4 | G2 A4 | _B2 A4 | G6 | c6 ||[M:4/4] F8 | %89
w: ||||||||||O|
[M:6/4] F2 c2 F2 c2 F2 c2 |[M:4/4] G8 | z8 | z8 |[M:6/4] c4 G8 | G2 F2 G2 F2 G2 F2 |[M:4/4] _B8 | %96
w: _ _ _ _ _ _||||[Ah] _|_ _ _ _ _ _||
 A8 | z8 | z8 | G8 | z8 | z8 | !breath!d8 | d2 G2 d2 G2 | g4 f4 | e4 d2 c2 | _B2 A2 G2 A2 | %107
w: |||[Ah]|||[Ah]|_ _ _ _||||
[M:6/4] _B2 A2 G4 c4 |[M:4/4] G8- | G8 | F8- | F8 |] %112
w: |A-||men.|_|

